linearize.cube
TITLE "linearize.cube"
LUT_3D_SIZE 8
DOMAIN_MIN 0.000000 0.000000 0.000000
DOMAIN_MAX 0.903226 0.903226 0.903226
0.000000 0.000000 0.000000
0.006580 0.000000 0.000000
0.034994 0.000000 0.000000
0.140785 0.000000 0.000000
0.561895 0.000000 0.000000
1.000000 0.000000 0.000000
1.000000 0.000000 0.000000
1.000000 0.000000 0.000000
0.000000 0.006580 0.000000
0.006580 0.006580 0.000000
0.034994 0.006580 0.000000
0.140785 0.006580 0.000000
0.561895 0.006580 0.000000
1.000000 0.006580 0.000000
1.000000 0.006580 0.000000
1.000000 0.006580 0.000000
0.000000 0.034994 0.000000
0.006580 0.034994 0.000000
0.034994 0.034994 0.000000
0.140785 0.034994 0.000000
0.561895 0.034994 0.000000
1.000000 0.034994 0.000000
1.000000 0.034994 0.000000
1.000000 0.034994 0.000000
0.000000 0.140785 0.000000
0.006580 0.140785 0.000000
0.034994 0.140785 0.000000
0.140785 0.140785 0.000000
0.561895 0.140785 0.000000
1.000000 0.140785 0.000000
1.000000 0.140785 0.000000
1.000000 0.140785 0.000000
0.000000 0.561895 0.000000
0.006580 0.561895 0.000000
0.034994 0.561895 0.000000
0.140785 0.561895 0.000000
0.561895 0.561895 0.000000
1.000000 0.561895 0.000000
1.000000 0.561895 0.000000
1.000000 0.561895 0.000000
0.000000 1.000000 0.000000
0.006580 1.000000 0.000000
0.034994 1.000000 0.000000
0.140785 1.000000 0.000000
0.561895 1.000000 0.000000
1.000000 1.000000 0.000000
1.000000 1.000000 0.000000
1.000000 1.000000 0.000000
0.000000 1.000000 0.000000
0.006580 1.000000 0.000000
0.034994 1.000000 0.000000
0.140785 1.000000 0.000000
0.561895 1.000000 0.000000
1.000000 1.000000 0.000000
1.000000 1.000000 0.000000
1.000000 1.000000 0.000000
0.000000 1.000000 0.000000
0.006580 1.000000 0.000000
0.034994 1.000000 0.000000
0.140785 1.000000 0.000000
0.561895 1.000000 0.000000
1.000000 1.000000 0.000000
1.000000 1.000000 0.000000
1.000000 1.000000 0.000000
0.000000 0.000000 0.006580
0.006580 0.000000 0.006580
0.034994 0.000000 0.006580
0.140785 0.000000 0.006580
0.561895 0.000000 0.006580
1.000000 0.000000 0.006580
1.000000 0.000000 0.006580
1.000000 0.000000 0.006580
0.000000 0.006580 0.006580
0.006580 0.006580 0.006580
0.034994 0.006580 0.006580
0.140785 0.006580 0.006580
0.561895 0.006580 0.006580
1.000000 0.006580 0.006580
1.000000 0.006580 0.006580
1.000000 0.006580 0.006580
0.000000 0.034994 0.006580
0.006580 0.034994 0.006580
0.034994 0.034994 0.006580
0.140785 0.034994 0.006580
0.561895 0.034994 0.006580
1.000000 0.034994 0.006580
1.000000 0.034994 0.006580
1.000000 0.034994 0.006580
0.000000 0.140785 0.006580
0.006580 0.140785 0.006580
0.034994 0.140785 0.006580
0.140785 0.140785 0.006580
0.561895 0.140785 0.006580
1.000000 0.140785 0.006580
1.000000 0.140785 0.006580
1.000000 0.140785 0.006580
0.000000 0.561895 0.006580
0.006580 0.561895 0.006580
0.034994 0.561895 0.006580
0.140785 0.561895 0.006580
0.561895 0.561895 0.006580
1.000000 0.561895 0.006580
1.000000 0.561895 0.006580
1.000000 0.561895 0.006580
0.000000 1.000000 0.006580
0.006580 1.000000 0.006580
0.034994 1.000000 0.006580
0.140785 1.000000 0.006580
0.561895 1.000000 0.006580
1.000000 1.000000 0.006580
1.000000 1.000000 0.006580
1.000000 1.000000 0.006580
0.000000 1.000000 0.006580
0.006580 1.000000 0.006580
0.034994 1.000000 0.006580
0.140785 1.000000 0.006580
0.561895 1.000000 0.006580
1.000000 1.000000 0.006580
1.000000 1.000000 0.006580
1.000000 1.000000 0.006580
0.000000 1.000000 0.006580
0.006580 1.000000 0.006580
0.034994 1.000000 0.006580
0.140785 1.000000 0.006580
0.561895 1.000000 0.006580
1.000000 1.000000 0.006580
1.000000 1.000000 0.006580
1.000000 1.000000 0.006580
0.000000 0.000000 0.034994
0.006580 0.000000 0.034994
0.034994 0.000000 0.034994
0.140785 0.000000 0.034994
0.561895 0.000000 0.034994
1.000000 0.000000 0.034994
1.000000 0.000000 0.034994
1.000000 0.000000 0.034994
0.000000 0.006580 0.034994
0.006580 0.006580 0.034994
0.034994 0.006580 0.034994
0.140785 0.006580 0.034994
0.561895 0.006580 0.034994
1.000000 0.006580 0.034994
1.000000 0.006580 0.034994
1.000000 0.006580 0.034994
0.000000 0.034994 0.034994
0.006580 0.034994 0.034994
0.034994 0.034994 0.034994
0.140785 0.034994 0.034994
0.561895 0.034994 0.034994
1.000000 0.034994 0.034994
1.000000 0.034994 0.034994
1.000000 0.034994 0.034994
0.000000 0.140785 0.034994
0.006580 0.140785 0.034994
0.034994 0.140785 0.034994
0.140785 0.140785 0.034994
0.561895 0.140785 0.034994
1.000000 0.140785 0.034994
1.000000 0.140785 0.034994
1.000000 0.140785 0.034994
0.000000 0.561895 0.034994
0.006580 0.561895 0.034994
0.034994 0.561895 0.034994
0.140785 0.561895 0.034994
0.561895 0.561895 0.034994
1.000000 0.561895 0.034994
1.000000 0.561895 0.034994
1.000000 0.561895 0.034994
0.000000 1.000000 0.034994
0.006580 1.000000 0.034994
0.034994 1.000000 0.034994
0.140785 1.000000 0.034994
0.561895 1.000000 0.034994
1.000000 1.000000 0.034994
1.000000 1.000000 0.034994
1.000000 1.000000 0.034994
0.000000 1.000000 0.034994
0.006580 1.000000 0.034994
0.034994 1.000000 0.034994
0.140785 1.000000 0.034994
0.561895 1.000000 0.034994
1.000000 1.000000 0.034994
1.000000 1.000000 0.034994
1.000000 1.000000 0.034994
0.000000 1.000000 0.034994
0.006580 1.000000 0.034994
0.034994 1.000000 0.034994
0.140785 1.000000 0.034994
0.561895 1.000000 0.034994
1.000000 1.000000 0.034994
1.000000 1.000000 0.034994
1.000000 1.000000 0.034994
0.000000 0.000000 0.140785
0.006580 0.000000 0.140785
0.034994 0.000000 0.140785
0.140785 0.000000 0.140785
0.561895 0.000000 0.140785
1.000000 0.000000 0.140785
1.000000 0.000000 0.140785
1.000000 0.000000 0.140785
0.000000 0.006580 0.140785
0.006580 0.006580 0.140785
0.034994 0.006580 0.140785
0.140785 0.006580 0.140785
0.561895 0.006580 0.140785
1.000000 0.006580 0.140785
1.000000 0.006580 0.140785
1.000000 0.006580 0.140785
0.000000 0.034994 0.140785
0.006580 0.034994 0.140785
0.034994 0.034994 0.140785
0.140785 0.034994 0.140785
0.561895 0.034994 0.140785
1.000000 0.034994 0.140785
1.000000 0.034994 0.140785
1.000000 0.034994 0.140785
0.000000 0.140785 0.140785
0.006580 0.140785 0.140785
0.034994 0.140785 0.140785
0.140785 0.140785 0.140785
0.561895 0.140785 0.140785
1.000000 0.140785 0.140785
1.000000 0.140785 0.140785
1.000000 0.140785 0.140785
0.000000 0.561895 0.140785
0.006580 0.561895 0.140785
0.034994 0.561895 0.140785
0.140785 0.561895 0.140785
0.561895 0.561895 0.140785
1.000000 0.561895 0.140785
1.000000 0.561895 0.140785
1.000000 0.561895 0.140785
0.000000 1.000000 0.140785
0.006580 1.000000 0.140785
0.034994 1.000000 0.140785
0.140785 1.000000 0.140785
0.561895 1.000000 0.140785
1.000000 1.000000 0.140785
1.000000 1.000000 0.140785
1.000000 1.000000 0.140785
0.000000 1.000000 0.140785
0.006580 1.000000 0.140785
0.034994 1.000000 0.140785
0.140785 1.000000 0.140785
0.561895 1.000000 0.140785
1.000000 1.000000 0.140785
1.000000 1.000000 0.140785
1.000000 1.000000 0.140785
0.000000 1.000000 0.140785
0.006580 1.000000 0.140785
0.034994 1.000000 0.140785
0.140785 1.000000 0.140785
0.561895 1.000000 0.140785
1.000000 1.000000 0.140785
1.000000 1.000000 0.140785
1.000000 1.000000 0.140785
0.000000 0.000000 0.561895
0.006580 0.000000 0.561895
0.034994 0.000000 0.561895
0.140785 0.000000 0.561895
0.561895 0.000000 0.561895
1.000000 0.000000 0.561895
1.000000 0.000000 0.561895
1.000000 0.000000 0.561895
0.000000 0.006580 0.561895
0.006580 0.006580 0.561895
0.034994 0.006580 0.561895
0.140785 0.006580 0.561895
0.561895 0.006580 0.561895
1.000000 0.006580 0.561895
1.000000 0.006580 0.561895
1.000000 0.006580 0.561895
0.000000 0.034994 0.561895
0.006580 0.034994 0.561895
0.034994 0.034994 0.561895
0.140785 0.034994 0.561895
0.561895 0.034994 0.561895
1.000000 0.034994 0.561895
1.000000 0.034994 0.561895
1.000000 0.034994 0.561895
0.000000 0.140785 0.561895
0.006580 0.140785 0.561895
0.034994 0.140785 0.561895
0.140785 0.140785 0.561895
0.561895 0.140785 0.561895
1.000000 0.140785 0.561895
1.000000 0.140785 0.561895
1.000000 0.140785 0.561895
0.000000 0.561895 0.561895
0.006580 0.561895 0.561895
0.034994 0.561895 0.561895
0.140785 0.561895 0.561895
0.561895 0.561895 0.561895
1.000000 0.561895 0.561895
1.000000 0.561895 0.561895
1.000000 0.561895 0.561895
0.000000 1.000000 0.561895
0.006580 1.000000 0.561895
0.034994 1.000000 0.561895
0.140785 1.000000 0.561895
0.561895 1.000000 0.561895
1.000000 1.000000 0.561895
1.000000 1.000000 0.561895
1.000000 1.000000 0.561895
0.000000 1.000000 0.561895
0.006580 1.000000 0.561895
0.034994 1.000000 0.561895
0.140785 1.000000 0.561895
0.561895 1.000000 0.561895
1.000000 1.000000 0.561895
1.000000 1.000000 0.561895
1.000000 1.000000 0.561895
0.000000 1.000000 0.561895
0.006580 1.000000 0.561895
0.034994 1.000000 0.561895
0.140785 1.000000 0.561895
0.561895 1.000000 0.561895
1.000000 1.000000 0.561895
1.000000 1.000000 0.561895
1.000000 1.000000 0.561895
0.000000 0.000000 1.000000
0.006580 0.000000 1.000000
0.034994 0.000000 1.000000
0.140785 0.000000 1.000000
0.561895 0.000000 1.000000
1.000000 0.000000 1.000000
1.000000 0.000000 1.000000
1.000000 0.000000 1.000000
0.000000 0.006580 1.000000
0.006580 0.006580 1.000000
0.034994 0.006580 1.000000
0.140785 0.006580 1.000000
0.561895 0.006580 1.000000
1.000000 0.006580 1.000000
1.000000 0.006580 1.000000
1.000000 0.006580 1.000000
0.000000 0.034994 1.000000
0.006580 0.034994 1.000000
0.034994 0.034994 1.000000
0.140785 0.034994 1.000000
0.561895 0.034994 1.000000
1.000000 0.034994 1.000000
1.000000 0.034994 1.000000
1.000000 0.034994 1.000000
0.000000 0.140785 1.000000
0.006580 0.140785 1.000000
0.034994 0.140785 1.000000
0.140785 0.140785 1.000000
0.561895 0.140785 1.000000
1.000000 0.140785 1.000000
1.000000 0.140785 1.000000
1.000000 0.140785 1.000000
0.000000 0.561895 1.000000
0.006580 0.561895 1.000000
0.034994 0.561895 1.000000
0.140785 0.561895 1.000000
0.561895 0.561895 1.000000
1.000000 0.561895 1.000000
1.000000 0.561895 1.000000
1.000000 0.561895 1.000000
0.000000 1.000000 1.000000
0.006580 1.000000 1.000000
0.034994 1.000000 1.000000
0.140785 1.000000 1.000000
0.561895 1.000000 1.000000
1.000000 1.000000 1.000000
1.000000 1.000000 1.000000
1.000000 1.000000 1.000000
0.000000 1.000000 1.000000
0.006580 1.000000 1.000000
0.034994 1.000000 1.000000
0.140785 1.000000 1.000000
0.561895 1.000000 1.000000
1.000000 1.000000 1.000000
1.000000 1.000000 1.000000
1.000000 1.000000 1.000000
0.000000 1.000000 1.000000
0.006580 1.000000 1.000000
0.034994 1.000000 1.000000
0.140785 1.000000 1.000000
0.561895 1.000000 1.000000
1.000000 1.000000 1.000000
1.000000 1.000000 1.000000
1.000000 1.000000 1.000000
0.000000 0.000000 1.000000
0.006580 0.000000 1.000000
0.034994 0.000000 1.000000
0.140785 0.000000 1.000000
0.561895 0.000000 1.000000
1.000000 0.000000 1.000000
1.000000 0.000000 1.000000
1.000000 0.000000 1.000000
0.000000 0.006580 1.000000
0.006580 0.006580 1.000000
0.034994 0.006580 1.000000
0.140785 0.006580 1.000000
0.561895 0.006580 1.000000
1.000000 0.006580 1.000000
1.000000 0.006580 1.000000
1.000000 0.006580 1.000000
0.000000 0.034994 1.000000
0.006580 0.034994 1.000000
0.034994 0.034994 1.000000
0.140785 0.034994 1.000000
0.561895 0.034994 1.000000
1.000000 0.034994 1.000000
1.000000 0.034994 1.000000
1.000000 0.034994 1.000000
0.000000 0.140785 1.000000
0.006580 0.140785 1.000000
0.034994 0.140785 1.000000
0.140785 0.140785 1.000000
0.561895 0.140785 1.000000
1.000000 0.140785 1.000000
1.000000 0.140785 1.000000
1.000000 0.140785 1.000000
0.000000 0.561895 1.000000
0.006580 0.561895 1.000000
0.034994 0.561895 1.000000
0.140785 0.561895 1.000000
0.561895 0.561895 1.000000
1.000000 0.561895 1.000000
1.000000 0.561895 1.000000
1.000000 0.561895 1.000000
0.000000 1.000000 1.000000
0.006580 1.000000 1.000000
0.034994 1.000000 1.000000
0.140785 1.000000 1.000000
0.561895 1.000000 1.000000
1.000000 1.000000 1.000000
1.000000 1.000000 1.000000
1.000000 1.000000 1.000000
0.000000 1.000000 1.000000
0.006580 1.000000 1.000000
0.034994 1.000000 1.000000
0.140785 1.000000 1.000000
0.561895 1.000000 1.000000
1.000000 1.000000 1.000000
1.000000 1.000000 1.000000
1.000000 1.000000 1.000000
0.000000 1.000000 1.000000
0.006580 1.000000 1.000000
0.034994 1.000000 1.000000
0.140785 1.000000 1.000000
0.561895 1.000000 1.000000
1.000000 1.000000 1.000000
1.000000 1.000000 1.000000
1.000000 1.000000 1.000000
0.000000 0.000000 1.000000
0.006580 0.000000 1.000000
0.034994 0.000000 1.000000
0.140785 0.000000 1.000000
0.561895 0.000000 1.000000
1.000000 0.000000 1.000000
1.000000 0.000000 1.000000
1.000000 0.000000 1.000000
0.000000 0.006580 1.000000
0.006580 0.006580 1.000000
0.034994 0.006580 1.000000
0.140785 0.006580 1.000000
0.561895 0.006580 1.000000
1.000000 0.006580 1.000000
1.000000 0.006580 1.000000
1.000000 0.006580 1.000000
0.000000 0.034994 1.000000
0.006580 0.034994 1.000000
0.034994 0.034994 1.000000
0.140785 0.034994 1.000000
0.561895 0.034994 1.000000
1.000000 0.034994 1.000000
1.000000 0.034994 1.000000
1.000000 0.034994 1.000000
0.000000 0.140785 1.000000
0.006580 0.140785 1.000000
0.034994 0.140785 1.000000
0.140785 0.140785 1.000000
0.561895 0.140785 1.000000
1.000000 0.140785 1.000000
1.000000 0.140785 1.000000
1.000000 0.140785 1.000000
0.000000 0.561895 1.000000
0.006580 0.561895 1.000000
0.034994 0.561895 1.000000
0.140785 0.561895 1.000000
0.561895 0.561895 1.000000
1.000000 0.561895 1.000000
1.000000 0.561895 1.000000
1.000000 0.561895 1.000000
0.000000 1.000000 1.000000
0.006580 1.000000 1.000000
0.034994 1.000000 1.000000
0.140785 1.000000 1.000000
0.561895 1.000000 1.000000
1.000000 1.000000 1.000000
1.000000 1.000000 1.000000
1.000000 1.000000 1.000000
0.000000 1.000000 1.000000
0.006580 1.000000 1.000000
0.034994 1.000000 1.000000
0.140785 1.000000 1.000000
0.561895 1.000000 1.000000
1.000000 1.000000 1.000000
1.000000 1.000000 1.000000
1.000000 1.000000 1.000000
0.000000 1.000000 1.000000
0.006580 1.000000 1.000000
0.034994 1.000000 1.000000
0.140785 1.000000 1.000000
0.561895 1.000000 1.000000
1.000000 1.000000 1.000000
1.000000 1.000000 1.000000
1.000000 1.000000 1.000000
