linearize.cube
TITLE "linearize.cube"
LUT_3D_SIZE 32
DOMAIN_MIN 0.0 0.0 0.0
DOMAIN_MAX 1.0 1.0 1.0
0.000000 0.000000 0.000000
0.000000 0.000000 0.000000
0.000000 0.000000 0.000000
0.002028 0.000000 0.000000
0.006580 0.000000 0.000000
0.009645 0.000000 0.000000
0.016084 0.000000 0.000000
0.024487 0.000000 0.000000
0.034994 0.000000 0.000000
0.050486 0.000000 0.000000
0.071000 0.000000 0.000000
0.100853 0.000000 0.000000
0.140785 0.000000 0.000000
0.198981 0.000000 0.000000
0.281838 0.000000 0.000000
0.395382 0.000000 0.000000
0.561895 0.000000 0.000000
0.785285 0.000000 0.000000
1.121953 0.000000 0.000000
1.000000 0.000000 0.000000
1.000000 0.000000 0.000000
1.000000 0.000000 0.000000
1.000000 0.000000 0.000000
1.000000 0.000000 0.000000
1.000000 0.000000 0.000000
1.000000 0.000000 0.000000
1.000000 0.000000 0.000000
1.000000 0.000000 0.000000
1.000000 0.000000 0.000000
1.000000 0.000000 0.000000
1.000000 0.000000 0.000000
1.000000 0.000000 0.000000
0.000000 0.000000 0.000000
0.000000 0.000000 0.000000
0.000000 0.000000 0.000000
0.002028 0.000000 0.000000
0.006580 0.000000 0.000000
0.009645 0.000000 0.000000
0.016084 0.000000 0.000000
0.024487 0.000000 0.000000
0.034994 0.000000 0.000000
0.050486 0.000000 0.000000
0.071000 0.000000 0.000000
0.100853 0.000000 0.000000
0.140785 0.000000 0.000000
0.198981 0.000000 0.000000
0.281838 0.000000 0.000000
0.395382 0.000000 0.000000
0.561895 0.000000 0.000000
0.785285 0.000000 0.000000
1.121953 0.000000 0.000000
1.000000 0.000000 0.000000
1.000000 0.000000 0.000000
1.000000 0.000000 0.000000
1.000000 0.000000 0.000000
1.000000 0.000000 0.000000
1.000000 0.000000 0.000000
1.000000 0.000000 0.000000
1.000000 0.000000 0.000000
1.000000 0.000000 0.000000
1.000000 0.000000 0.000000
1.000000 0.000000 0.000000
1.000000 0.000000 0.000000
1.000000 0.000000 0.000000
0.000000 0.000000 0.000000
0.000000 0.000000 0.000000
0.000000 0.000000 0.000000
0.002028 0.000000 0.000000
0.006580 0.000000 0.000000
0.009645 0.000000 0.000000
0.016084 0.000000 0.000000
0.024487 0.000000 0.000000
0.034994 0.000000 0.000000
0.050486 0.000000 0.000000
0.071000 0.000000 0.000000
0.100853 0.000000 0.000000
0.140785 0.000000 0.000000
0.198981 0.000000 0.000000
0.281838 0.000000 0.000000
0.395382 0.000000 0.000000
0.561895 0.000000 0.000000
0.785285 0.000000 0.000000
1.121953 0.000000 0.000000
1.000000 0.000000 0.000000
1.000000 0.000000 0.000000
1.000000 0.000000 0.000000
1.000000 0.000000 0.000000
1.000000 0.000000 0.000000
1.000000 0.000000 0.000000
1.000000 0.000000 0.000000
1.000000 0.000000 0.000000
1.000000 0.000000 0.000000
1.000000 0.000000 0.000000
1.000000 0.000000 0.000000
1.000000 0.000000 0.000000
1.000000 0.000000 0.000000
0.000000 0.002028 0.000000
0.000000 0.002028 0.000000
0.000000 0.002028 0.000000
0.002028 0.002028 0.000000
0.006580 0.002028 0.000000
0.009645 0.002028 0.000000
0.016084 0.002028 0.000000
0.024487 0.002028 0.000000
0.034994 0.002028 0.000000
0.050486 0.002028 0.000000
0.071000 0.002028 0.000000
0.100853 0.002028 0.000000
0.140785 0.002028 0.000000
0.198981 0.002028 0.000000
0.281838 0.002028 0.000000
0.395382 0.002028 0.000000
0.561895 0.002028 0.000000
0.785285 0.002028 0.000000
1.121953 0.002028 0.000000
1.000000 0.002028 0.000000
1.000000 0.002028 0.000000
1.000000 0.002028 0.000000
1.000000 0.002028 0.000000
1.000000 0.002028 0.000000
1.000000 0.002028 0.000000
1.000000 0.002028 0.000000
1.000000 0.002028 0.000000
1.000000 0.002028 0.000000
1.000000 0.002028 0.000000
1.000000 0.002028 0.000000
1.000000 0.002028 0.000000
1.000000 0.002028 0.000000
0.000000 0.006580 0.000000
0.000000 0.006580 0.000000
0.000000 0.006580 0.000000
0.002028 0.006580 0.000000
0.006580 0.006580 0.000000
0.009645 0.006580 0.000000
0.016084 0.006580 0.000000
0.024487 0.006580 0.000000
0.034994 0.006580 0.000000
0.050486 0.006580 0.000000
0.071000 0.006580 0.000000
0.100853 0.006580 0.000000
0.140785 0.006580 0.000000
0.198981 0.006580 0.000000
0.281838 0.006580 0.000000
0.395382 0.006580 0.000000
0.561895 0.006580 0.000000
0.785285 0.006580 0.000000
1.121953 0.006580 0.000000
1.000000 0.006580 0.000000
1.000000 0.006580 0.000000
1.000000 0.006580 0.000000
1.000000 0.006580 0.000000
1.000000 0.006580 0.000000
1.000000 0.006580 0.000000
1.000000 0.006580 0.000000
1.000000 0.006580 0.000000
1.000000 0.006580 0.000000
1.000000 0.006580 0.000000
1.000000 0.006580 0.000000
1.000000 0.006580 0.000000
1.000000 0.006580 0.000000
0.000000 0.009645 0.000000
0.000000 0.009645 0.000000
0.000000 0.009645 0.000000
0.002028 0.009645 0.000000
0.006580 0.009645 0.000000
0.009645 0.009645 0.000000
0.016084 0.009645 0.000000
0.024487 0.009645 0.000000
0.034994 0.009645 0.000000
0.050486 0.009645 0.000000
0.071000 0.009645 0.000000
0.100853 0.009645 0.000000
0.140785 0.009645 0.000000
0.198981 0.009645 0.000000
0.281838 0.009645 0.000000
0.395382 0.009645 0.000000
0.561895 0.009645 0.000000
0.785285 0.009645 0.000000
1.121953 0.009645 0.000000
1.000000 0.009645 0.000000
1.000000 0.009645 0.000000
1.000000 0.009645 0.000000
1.000000 0.009645 0.000000
1.000000 0.009645 0.000000
1.000000 0.009645 0.000000
1.000000 0.009645 0.000000
1.000000 0.009645 0.000000
1.000000 0.009645 0.000000
1.000000 0.009645 0.000000
1.000000 0.009645 0.000000
1.000000 0.009645 0.000000
1.000000 0.009645 0.000000
0.000000 0.016084 0.000000
0.000000 0.016084 0.000000
0.000000 0.016084 0.000000
0.002028 0.016084 0.000000
0.006580 0.016084 0.000000
0.009645 0.016084 0.000000
0.016084 0.016084 0.000000
0.024487 0.016084 0.000000
0.034994 0.016084 0.000000
0.050486 0.016084 0.000000
0.071000 0.016084 0.000000
0.100853 0.016084 0.000000
0.140785 0.016084 0.000000
0.198981 0.016084 0.000000
0.281838 0.016084 0.000000
0.395382 0.016084 0.000000
0.561895 0.016084 0.000000
0.785285 0.016084 0.000000
1.121953 0.016084 0.000000
1.000000 0.016084 0.000000
1.000000 0.016084 0.000000
1.000000 0.016084 0.000000
1.000000 0.016084 0.000000
1.000000 0.016084 0.000000
1.000000 0.016084 0.000000
1.000000 0.016084 0.000000
1.000000 0.016084 0.000000
1.000000 0.016084 0.000000
1.000000 0.016084 0.000000
1.000000 0.016084 0.000000
1.000000 0.016084 0.000000
1.000000 0.016084 0.000000
0.000000 0.024487 0.000000
0.000000 0.024487 0.000000
0.000000 0.024487 0.000000
0.002028 0.024487 0.000000
0.006580 0.024487 0.000000
0.009645 0.024487 0.000000
0.016084 0.024487 0.000000
0.024487 0.024487 0.000000
0.034994 0.024487 0.000000
0.050486 0.024487 0.000000
0.071000 0.024487 0.000000
0.100853 0.024487 0.000000
0.140785 0.024487 0.000000
0.198981 0.024487 0.000000
0.281838 0.024487 0.000000
0.395382 0.024487 0.000000
0.561895 0.024487 0.000000
0.785285 0.024487 0.000000
1.121953 0.024487 0.000000
1.000000 0.024487 0.000000
1.000000 0.024487 0.000000
1.000000 0.024487 0.000000
1.000000 0.024487 0.000000
1.000000 0.024487 0.000000
1.000000 0.024487 0.000000
1.000000 0.024487 0.000000
1.000000 0.024487 0.000000
1.000000 0.024487 0.000000
1.000000 0.024487 0.000000
1.000000 0.024487 0.000000
1.000000 0.024487 0.000000
1.000000 0.024487 0.000000
0.000000 0.034994 0.000000
0.000000 0.034994 0.000000
0.000000 0.034994 0.000000
0.002028 0.034994 0.000000
0.006580 0.034994 0.000000
0.009645 0.034994 0.000000
0.016084 0.034994 0.000000
0.024487 0.034994 0.000000
0.034994 0.034994 0.000000
0.050486 0.034994 0.000000
0.071000 0.034994 0.000000
0.100853 0.034994 0.000000
0.140785 0.034994 0.000000
0.198981 0.034994 0.000000
0.281838 0.034994 0.000000
0.395382 0.034994 0.000000
0.561895 0.034994 0.000000
0.785285 0.034994 0.000000
1.121953 0.034994 0.000000
1.000000 0.034994 0.000000
1.000000 0.034994 0.000000
1.000000 0.034994 0.000000
1.000000 0.034994 0.000000
1.000000 0.034994 0.000000
1.000000 0.034994 0.000000
1.000000 0.034994 0.000000
1.000000 0.034994 0.000000
1.000000 0.034994 0.000000
1.000000 0.034994 0.000000
1.000000 0.034994 0.000000
1.000000 0.034994 0.000000
1.000000 0.034994 0.000000
0.000000 0.050486 0.000000
0.000000 0.050486 0.000000
0.000000 0.050486 0.000000
0.002028 0.050486 0.000000
0.006580 0.050486 0.000000
0.009645 0.050486 0.000000
0.016084 0.050486 0.000000
0.024487 0.050486 0.000000
0.034994 0.050486 0.000000
0.050486 0.050486 0.000000
0.071000 0.050486 0.000000
0.100853 0.050486 0.000000
0.140785 0.050486 0.000000
0.198981 0.050486 0.000000
0.281838 0.050486 0.000000
0.395382 0.050486 0.000000
0.561895 0.050486 0.000000
0.785285 0.050486 0.000000
1.121953 0.050486 0.000000
1.000000 0.050486 0.000000
1.000000 0.050486 0.000000
1.000000 0.050486 0.000000
1.000000 0.050486 0.000000
1.000000 0.050486 0.000000
1.000000 0.050486 0.000000
1.000000 0.050486 0.000000
1.000000 0.050486 0.000000
1.000000 0.050486 0.000000
1.000000 0.050486 0.000000
1.000000 0.050486 0.000000
1.000000 0.050486 0.000000
1.000000 0.050486 0.000000
0.000000 0.071000 0.000000
0.000000 0.071000 0.000000
0.000000 0.071000 0.000000
0.002028 0.071000 0.000000
0.006580 0.071000 0.000000
0.009645 0.071000 0.000000
0.016084 0.071000 0.000000
0.024487 0.071000 0.000000
0.034994 0.071000 0.000000
0.050486 0.071000 0.000000
0.071000 0.071000 0.000000
0.100853 0.071000 0.000000
0.140785 0.071000 0.000000
0.198981 0.071000 0.000000
0.281838 0.071000 0.000000
0.395382 0.071000 0.000000
0.561895 0.071000 0.000000
0.785285 0.071000 0.000000
1.121953 0.071000 0.000000
1.000000 0.071000 0.000000
1.000000 0.071000 0.000000
1.000000 0.071000 0.000000
1.000000 0.071000 0.000000
1.000000 0.071000 0.000000
1.000000 0.071000 0.000000
1.000000 0.071000 0.000000
1.000000 0.071000 0.000000
1.000000 0.071000 0.000000
1.000000 0.071000 0.000000
1.000000 0.071000 0.000000
1.000000 0.071000 0.000000
1.000000 0.071000 0.000000
0.000000 0.100853 0.000000
0.000000 0.100853 0.000000
0.000000 0.100853 0.000000
0.002028 0.100853 0.000000
0.006580 0.100853 0.000000
0.009645 0.100853 0.000000
0.016084 0.100853 0.000000
0.024487 0.100853 0.000000
0.034994 0.100853 0.000000
0.050486 0.100853 0.000000
0.071000 0.100853 0.000000
0.100853 0.100853 0.000000
0.140785 0.100853 0.000000
0.198981 0.100853 0.000000
0.281838 0.100853 0.000000
0.395382 0.100853 0.000000
0.561895 0.100853 0.000000
0.785285 0.100853 0.000000
1.121953 0.100853 0.000000
1.000000 0.100853 0.000000
1.000000 0.100853 0.000000
1.000000 0.100853 0.000000
1.000000 0.100853 0.000000
1.000000 0.100853 0.000000
1.000000 0.100853 0.000000
1.000000 0.100853 0.000000
1.000000 0.100853 0.000000
1.000000 0.100853 0.000000
1.000000 0.100853 0.000000
1.000000 0.100853 0.000000
1.000000 0.100853 0.000000
1.000000 0.100853 0.000000
0.000000 0.140785 0.000000
0.000000 0.140785 0.000000
0.000000 0.140785 0.000000
0.002028 0.140785 0.000000
0.006580 0.140785 0.000000
0.009645 0.140785 0.000000
0.016084 0.140785 0.000000
0.024487 0.140785 0.000000
0.034994 0.140785 0.000000
0.050486 0.140785 0.000000
0.071000 0.140785 0.000000
0.100853 0.140785 0.000000
0.140785 0.140785 0.000000
0.198981 0.140785 0.000000
0.281838 0.140785 0.000000
0.395382 0.140785 0.000000
0.561895 0.140785 0.000000
0.785285 0.140785 0.000000
1.121953 0.140785 0.000000
1.000000 0.140785 0.000000
1.000000 0.140785 0.000000
1.000000 0.140785 0.000000
1.000000 0.140785 0.000000
1.000000 0.140785 0.000000
1.000000 0.140785 0.000000
1.000000 0.140785 0.000000
1.000000 0.140785 0.000000
1.000000 0.140785 0.000000
1.000000 0.140785 0.000000
1.000000 0.140785 0.000000
1.000000 0.140785 0.000000
1.000000 0.140785 0.000000
0.000000 0.198981 0.000000
0.000000 0.198981 0.000000
0.000000 0.198981 0.000000
0.002028 0.198981 0.000000
0.006580 0.198981 0.000000
0.009645 0.198981 0.000000
0.016084 0.198981 0.000000
0.024487 0.198981 0.000000
0.034994 0.198981 0.000000
0.050486 0.198981 0.000000
0.071000 0.198981 0.000000
0.100853 0.198981 0.000000
0.140785 0.198981 0.000000
0.198981 0.198981 0.000000
0.281838 0.198981 0.000000
0.395382 0.198981 0.000000
0.561895 0.198981 0.000000
0.785285 0.198981 0.000000
1.121953 0.198981 0.000000
1.000000 0.198981 0.000000
1.000000 0.198981 0.000000
1.000000 0.198981 0.000000
1.000000 0.198981 0.000000
1.000000 0.198981 0.000000
1.000000 0.198981 0.000000
1.000000 0.198981 0.000000
1.000000 0.198981 0.000000
1.000000 0.198981 0.000000
1.000000 0.198981 0.000000
1.000000 0.198981 0.000000
1.000000 0.198981 0.000000
1.000000 0.198981 0.000000
0.000000 0.281838 0.000000
0.000000 0.281838 0.000000
0.000000 0.281838 0.000000
0.002028 0.281838 0.000000
0.006580 0.281838 0.000000
0.009645 0.281838 0.000000
0.016084 0.281838 0.000000
0.024487 0.281838 0.000000
0.034994 0.281838 0.000000
0.050486 0.281838 0.000000
0.071000 0.281838 0.000000
0.100853 0.281838 0.000000
0.140785 0.281838 0.000000
0.198981 0.281838 0.000000
0.281838 0.281838 0.000000
0.395382 0.281838 0.000000
0.561895 0.281838 0.000000
0.785285 0.281838 0.000000
1.121953 0.281838 0.000000
1.000000 0.281838 0.000000
1.000000 0.281838 0.000000
1.000000 0.281838 0.000000
1.000000 0.281838 0.000000
1.000000 0.281838 0.000000
1.000000 0.281838 0.000000
1.000000 0.281838 0.000000
1.000000 0.281838 0.000000
1.000000 0.281838 0.000000
1.000000 0.281838 0.000000
1.000000 0.281838 0.000000
1.000000 0.281838 0.000000
1.000000 0.281838 0.000000
0.000000 0.395382 0.000000
0.000000 0.395382 0.000000
0.000000 0.395382 0.000000
0.002028 0.395382 0.000000
0.006580 0.395382 0.000000
0.009645 0.395382 0.000000
0.016084 0.395382 0.000000
0.024487 0.395382 0.000000
0.034994 0.395382 0.000000
0.050486 0.395382 0.000000
0.071000 0.395382 0.000000
0.100853 0.395382 0.000000
0.140785 0.395382 0.000000
0.198981 0.395382 0.000000
0.281838 0.395382 0.000000
0.395382 0.395382 0.000000
0.561895 0.395382 0.000000
0.785285 0.395382 0.000000
1.121953 0.395382 0.000000
1.000000 0.395382 0.000000
1.000000 0.395382 0.000000
1.000000 0.395382 0.000000
1.000000 0.395382 0.000000
1.000000 0.395382 0.000000
1.000000 0.395382 0.000000
1.000000 0.395382 0.000000
1.000000 0.395382 0.000000
1.000000 0.395382 0.000000
1.000000 0.395382 0.000000
1.000000 0.395382 0.000000
1.000000 0.395382 0.000000
1.000000 0.395382 0.000000
0.000000 0.561895 0.000000
0.000000 0.561895 0.000000
0.000000 0.561895 0.000000
0.002028 0.561895 0.000000
0.006580 0.561895 0.000000
0.009645 0.561895 0.000000
0.016084 0.561895 0.000000
0.024487 0.561895 0.000000
0.034994 0.561895 0.000000
0.050486 0.561895 0.000000
0.071000 0.561895 0.000000
0.100853 0.561895 0.000000
0.140785 0.561895 0.000000
0.198981 0.561895 0.000000
0.281838 0.561895 0.000000
0.395382 0.561895 0.000000
0.561895 0.561895 0.000000
0.785285 0.561895 0.000000
1.121953 0.561895 0.000000
1.000000 0.561895 0.000000
1.000000 0.561895 0.000000
1.000000 0.561895 0.000000
1.000000 0.561895 0.000000
1.000000 0.561895 0.000000
1.000000 0.561895 0.000000
1.000000 0.561895 0.000000
1.000000 0.561895 0.000000
1.000000 0.561895 0.000000
1.000000 0.561895 0.000000
1.000000 0.561895 0.000000
1.000000 0.561895 0.000000
1.000000 0.561895 0.000000
0.000000 0.785285 0.000000
0.000000 0.785285 0.000000
0.000000 0.785285 0.000000
0.002028 0.785285 0.000000
0.006580 0.785285 0.000000
0.009645 0.785285 0.000000
0.016084 0.785285 0.000000
0.024487 0.785285 0.000000
0.034994 0.785285 0.000000
0.050486 0.785285 0.000000
0.071000 0.785285 0.000000
0.100853 0.785285 0.000000
0.140785 0.785285 0.000000
0.198981 0.785285 0.000000
0.281838 0.785285 0.000000
0.395382 0.785285 0.000000
0.561895 0.785285 0.000000
0.785285 0.785285 0.000000
1.121953 0.785285 0.000000
1.000000 0.785285 0.000000
1.000000 0.785285 0.000000
1.000000 0.785285 0.000000
1.000000 0.785285 0.000000
1.000000 0.785285 0.000000
1.000000 0.785285 0.000000
1.000000 0.785285 0.000000
1.000000 0.785285 0.000000
1.000000 0.785285 0.000000
1.000000 0.785285 0.000000
1.000000 0.785285 0.000000
1.000000 0.785285 0.000000
1.000000 0.785285 0.000000
0.000000 1.121953 0.000000
0.000000 1.121953 0.000000
0.000000 1.121953 0.000000
0.002028 1.121953 0.000000
0.006580 1.121953 0.000000
0.009645 1.121953 0.000000
0.016084 1.121953 0.000000
0.024487 1.121953 0.000000
0.034994 1.121953 0.000000
0.050486 1.121953 0.000000
0.071000 1.121953 0.000000
0.100853 1.121953 0.000000
0.140785 1.121953 0.000000
0.198981 1.121953 0.000000
0.281838 1.121953 0.000000
0.395382 1.121953 0.000000
0.561895 1.121953 0.000000
0.785285 1.121953 0.000000
1.121953 1.121953 0.000000
1.000000 1.121953 0.000000
1.000000 1.121953 0.000000
1.000000 1.121953 0.000000
1.000000 1.121953 0.000000
1.000000 1.121953 0.000000
1.000000 1.121953 0.000000
1.000000 1.121953 0.000000
1.000000 1.121953 0.000000
1.000000 1.121953 0.000000
1.000000 1.121953 0.000000
1.000000 1.121953 0.000000
1.000000 1.121953 0.000000
1.000000 1.121953 0.000000
0.000000 1.000000 0.000000
0.000000 1.000000 0.000000
0.000000 1.000000 0.000000
0.002028 1.000000 0.000000
0.006580 1.000000 0.000000
0.009645 1.000000 0.000000
0.016084 1.000000 0.000000
0.024487 1.000000 0.000000
0.034994 1.000000 0.000000
0.050486 1.000000 0.000000
0.071000 1.000000 0.000000
0.100853 1.000000 0.000000
0.140785 1.000000 0.000000
0.198981 1.000000 0.000000
0.281838 1.000000 0.000000
0.395382 1.000000 0.000000
0.561895 1.000000 0.000000
0.785285 1.000000 0.000000
1.121953 1.000000 0.000000
1.000000 1.000000 0.000000
1.000000 1.000000 0.000000
1.000000 1.000000 0.000000
1.000000 1.000000 0.000000
1.000000 1.000000 0.000000
1.000000 1.000000 0.000000
1.000000 1.000000 0.000000
1.000000 1.000000 0.000000
1.000000 1.000000 0.000000
1.000000 1.000000 0.000000
1.000000 1.000000 0.000000
1.000000 1.000000 0.000000
1.000000 1.000000 0.000000
0.000000 1.000000 0.000000
0.000000 1.000000 0.000000
0.000000 1.000000 0.000000
0.002028 1.000000 0.000000
0.006580 1.000000 0.000000
0.009645 1.000000 0.000000
0.016084 1.000000 0.000000
0.024487 1.000000 0.000000
0.034994 1.000000 0.000000
0.050486 1.000000 0.000000
0.071000 1.000000 0.000000
0.100853 1.000000 0.000000
0.140785 1.000000 0.000000
0.198981 1.000000 0.000000
0.281838 1.000000 0.000000
0.395382 1.000000 0.000000
0.561895 1.000000 0.000000
0.785285 1.000000 0.000000
1.121953 1.000000 0.000000
1.000000 1.000000 0.000000
1.000000 1.000000 0.000000
1.000000 1.000000 0.000000
1.000000 1.000000 0.000000
1.000000 1.000000 0.000000
1.000000 1.000000 0.000000
1.000000 1.000000 0.000000
1.000000 1.000000 0.000000
1.000000 1.000000 0.000000
1.000000 1.000000 0.000000
1.000000 1.000000 0.000000
1.000000 1.000000 0.000000
1.000000 1.000000 0.000000
0.000000 1.000000 0.000000
0.000000 1.000000 0.000000
0.000000 1.000000 0.000000
0.002028 1.000000 0.000000
0.006580 1.000000 0.000000
0.009645 1.000000 0.000000
0.016084 1.000000 0.000000
0.024487 1.000000 0.000000
0.034994 1.000000 0.000000
0.050486 1.000000 0.000000
0.071000 1.000000 0.000000
0.100853 1.000000 0.000000
0.140785 1.000000 0.000000
0.198981 1.000000 0.000000
0.281838 1.000000 0.000000
0.395382 1.000000 0.000000
0.561895 1.000000 0.000000
0.785285 1.000000 0.000000
1.121953 1.000000 0.000000
1.000000 1.000000 0.000000
1.000000 1.000000 0.000000
1.000000 1.000000 0.000000
1.000000 1.000000 0.000000
1.000000 1.000000 0.000000
1.000000 1.000000 0.000000
1.000000 1.000000 0.000000
1.000000 1.000000 0.000000
1.000000 1.000000 0.000000
1.000000 1.000000 0.000000
1.000000 1.000000 0.000000
1.000000 1.000000 0.000000
1.000000 1.000000 0.000000
0.000000 1.000000 0.000000
0.000000 1.000000 0.000000
0.000000 1.000000 0.000000
0.002028 1.000000 0.000000
0.006580 1.000000 0.000000
0.009645 1.000000 0.000000
0.016084 1.000000 0.000000
0.024487 1.000000 0.000000
0.034994 1.000000 0.000000
0.050486 1.000000 0.000000
0.071000 1.000000 0.000000
0.100853 1.000000 0.000000
0.140785 1.000000 0.000000
0.198981 1.000000 0.000000
0.281838 1.000000 0.000000
0.395382 1.000000 0.000000
0.561895 1.000000 0.000000
0.785285 1.000000 0.000000
1.121953 1.000000 0.000000
1.000000 1.000000 0.000000
1.000000 1.000000 0.000000
1.000000 1.000000 0.000000
1.000000 1.000000 0.000000
1.000000 1.000000 0.000000
1.000000 1.000000 0.000000
1.000000 1.000000 0.000000
1.000000 1.000000 0.000000
1.000000 1.000000 0.000000
1.000000 1.000000 0.000000
1.000000 1.000000 0.000000
1.000000 1.000000 0.000000
1.000000 1.000000 0.000000
0.000000 1.000000 0.000000
0.000000 1.000000 0.000000
0.000000 1.000000 0.000000
0.002028 1.000000 0.000000
0.006580 1.000000 0.000000
0.009645 1.000000 0.000000
0.016084 1.000000 0.000000
0.024487 1.000000 0.000000
0.034994 1.000000 0.000000
0.050486 1.000000 0.000000
0.071000 1.000000 0.000000
0.100853 1.000000 0.000000
0.140785 1.000000 0.000000
0.198981 1.000000 0.000000
0.281838 1.000000 0.000000
0.395382 1.000000 0.000000
0.561895 1.000000 0.000000
0.785285 1.000000 0.000000
1.121953 1.000000 0.000000
1.000000 1.000000 0.000000
1.000000 1.000000 0.000000
1.000000 1.000000 0.000000
1.000000 1.000000 0.000000
1.000000 1.000000 0.000000
1.000000 1.000000 0.000000
1.000000 1.000000 0.000000
1.000000 1.000000 0.000000
1.000000 1.000000 0.000000
1.000000 1.000000 0.000000
1.000000 1.000000 0.000000
1.000000 1.000000 0.000000
1.000000 1.000000 0.000000
0.000000 1.000000 0.000000
0.000000 1.000000 0.000000
0.000000 1.000000 0.000000
0.002028 1.000000 0.000000
0.006580 1.000000 0.000000
0.009645 1.000000 0.000000
0.016084 1.000000 0.000000
0.024487 1.000000 0.000000
0.034994 1.000000 0.000000
0.050486 1.000000 0.000000
0.071000 1.000000 0.000000
0.100853 1.000000 0.000000
0.140785 1.000000 0.000000
0.198981 1.000000 0.000000
0.281838 1.000000 0.000000
0.395382 1.000000 0.000000
0.561895 1.000000 0.000000
0.785285 1.000000 0.000000
1.121953 1.000000 0.000000
1.000000 1.000000 0.000000
1.000000 1.000000 0.000000
1.000000 1.000000 0.000000
1.000000 1.000000 0.000000
1.000000 1.000000 0.000000
1.000000 1.000000 0.000000
1.000000 1.000000 0.000000
1.000000 1.000000 0.000000
1.000000 1.000000 0.000000
1.000000 1.000000 0.000000
1.000000 1.000000 0.000000
1.000000 1.000000 0.000000
1.000000 1.000000 0.000000
0.000000 1.000000 0.000000
0.000000 1.000000 0.000000
0.000000 1.000000 0.000000
0.002028 1.000000 0.000000
0.006580 1.000000 0.000000
0.009645 1.000000 0.000000
0.016084 1.000000 0.000000
0.024487 1.000000 0.000000
0.034994 1.000000 0.000000
0.050486 1.000000 0.000000
0.071000 1.000000 0.000000
0.100853 1.000000 0.000000
0.140785 1.000000 0.000000
0.198981 1.000000 0.000000
0.281838 1.000000 0.000000
0.395382 1.000000 0.000000
0.561895 1.000000 0.000000
0.785285 1.000000 0.000000
1.121953 1.000000 0.000000
1.000000 1.000000 0.000000
1.000000 1.000000 0.000000
1.000000 1.000000 0.000000
1.000000 1.000000 0.000000
1.000000 1.000000 0.000000
1.000000 1.000000 0.000000
1.000000 1.000000 0.000000
1.000000 1.000000 0.000000
1.000000 1.000000 0.000000
1.000000 1.000000 0.000000
1.000000 1.000000 0.000000
1.000000 1.000000 0.000000
1.000000 1.000000 0.000000
0.000000 1.000000 0.000000
0.000000 1.000000 0.000000
0.000000 1.000000 0.000000
0.002028 1.000000 0.000000
0.006580 1.000000 0.000000
0.009645 1.000000 0.000000
0.016084 1.000000 0.000000
0.024487 1.000000 0.000000
0.034994 1.000000 0.000000
0.050486 1.000000 0.000000
0.071000 1.000000 0.000000
0.100853 1.000000 0.000000
0.140785 1.000000 0.000000
0.198981 1.000000 0.000000
0.281838 1.000000 0.000000
0.395382 1.000000 0.000000
0.561895 1.000000 0.000000
0.785285 1.000000 0.000000
1.121953 1.000000 0.000000
1.000000 1.000000 0.000000
1.000000 1.000000 0.000000
1.000000 1.000000 0.000000
1.000000 1.000000 0.000000
1.000000 1.000000 0.000000
1.000000 1.000000 0.000000
1.000000 1.000000 0.000000
1.000000 1.000000 0.000000
1.000000 1.000000 0.000000
1.000000 1.000000 0.000000
1.000000 1.000000 0.000000
1.000000 1.000000 0.000000
1.000000 1.000000 0.000000
0.000000 1.000000 0.000000
0.000000 1.000000 0.000000
0.000000 1.000000 0.000000
0.002028 1.000000 0.000000
0.006580 1.000000 0.000000
0.009645 1.000000 0.000000
0.016084 1.000000 0.000000
0.024487 1.000000 0.000000
0.034994 1.000000 0.000000
0.050486 1.000000 0.000000
0.071000 1.000000 0.000000
0.100853 1.000000 0.000000
0.140785 1.000000 0.000000
0.198981 1.000000 0.000000
0.281838 1.000000 0.000000
0.395382 1.000000 0.000000
0.561895 1.000000 0.000000
0.785285 1.000000 0.000000
1.121953 1.000000 0.000000
1.000000 1.000000 0.000000
1.000000 1.000000 0.000000
