linearize.cube
TITLE "linearize.cube"
LUT_3D_SIZE 5
DOMAIN_MIN 0.000000 0.000000 0.000000
DOMAIN_MAX 0.903226 0.903226 0.903226
0.000000 0.000000 0.000000
0.024487 0.000000 0.000000
0.281838 0.000000 0.000000
1.000000 0.000000 0.000000
1.000000 0.000000 0.000000
0.000000 0.024487 0.000000
0.024487 0.024487 0.000000
0.281838 0.024487 0.000000
1.000000 0.024487 0.000000
1.000000 0.024487 0.000000
0.000000 0.281838 0.000000
0.024487 0.281838 0.000000
0.281838 0.281838 0.000000
1.000000 0.281838 0.000000
1.000000 0.281838 0.000000
0.000000 1.000000 0.000000
0.024487 1.000000 0.000000
0.281838 1.000000 0.000000
1.000000 1.000000 0.000000
1.000000 1.000000 0.000000
0.000000 1.000000 0.000000
0.024487 1.000000 0.000000
0.281838 1.000000 0.000000
1.000000 1.000000 0.000000
1.000000 1.000000 0.000000
0.000000 0.000000 0.024487
0.024487 0.000000 0.024487
0.281838 0.000000 0.024487
1.000000 0.000000 0.024487
1.000000 0.000000 0.024487
0.000000 0.024487 0.024487
0.024487 0.024487 0.024487
0.281838 0.024487 0.024487
1.000000 0.024487 0.024487
1.000000 0.024487 0.024487
0.000000 0.281838 0.024487
0.024487 0.281838 0.024487
0.281838 0.281838 0.024487
1.000000 0.281838 0.024487
1.000000 0.281838 0.024487
0.000000 1.000000 0.024487
0.024487 1.000000 0.024487
0.281838 1.000000 0.024487
1.000000 1.000000 0.024487
1.000000 1.000000 0.024487
0.000000 1.000000 0.024487
0.024487 1.000000 0.024487
0.281838 1.000000 0.024487
1.000000 1.000000 0.024487
1.000000 1.000000 0.024487
0.000000 0.000000 0.281838
0.024487 0.000000 0.281838
0.281838 0.000000 0.281838
1.000000 0.000000 0.281838
1.000000 0.000000 0.281838
0.000000 0.024487 0.281838
0.024487 0.024487 0.281838
0.281838 0.024487 0.281838
1.000000 0.024487 0.281838
1.000000 0.024487 0.281838
0.000000 0.281838 0.281838
0.024487 0.281838 0.281838
0.281838 0.281838 0.281838
1.000000 0.281838 0.281838
1.000000 0.281838 0.281838
0.000000 1.000000 0.281838
0.024487 1.000000 0.281838
0.281838 1.000000 0.281838
1.000000 1.000000 0.281838
1.000000 1.000000 0.281838
0.000000 1.000000 0.281838
0.024487 1.000000 0.281838
0.281838 1.000000 0.281838
1.000000 1.000000 0.281838
1.000000 1.000000 0.281838
0.000000 0.000000 1.000000
0.024487 0.000000 1.000000
0.281838 0.000000 1.000000
1.000000 0.000000 1.000000
1.000000 0.000000 1.000000
0.000000 0.024487 1.000000
0.024487 0.024487 1.000000
0.281838 0.024487 1.000000
1.000000 0.024487 1.000000
1.000000 0.024487 1.000000
0.000000 0.281838 1.000000
0.024487 0.281838 1.000000
0.281838 0.281838 1.000000
1.000000 0.281838 1.000000
1.000000 0.281838 1.000000
0.000000 1.000000 1.000000
0.024487 1.000000 1.000000
0.281838 1.000000 1.000000
1.000000 1.000000 1.000000
1.000000 1.000000 1.000000
0.000000 1.000000 1.000000
0.024487 1.000000 1.000000
0.281838 1.000000 1.000000
1.000000 1.000000 1.000000
1.000000 1.000000 1.000000
0.000000 0.000000 1.000000
0.024487 0.000000 1.000000
0.281838 0.000000 1.000000
1.000000 0.000000 1.000000
1.000000 0.000000 1.000000
0.000000 0.024487 1.000000
0.024487 0.024487 1.000000
0.281838 0.024487 1.000000
1.000000 0.024487 1.000000
1.000000 0.024487 1.000000
0.000000 0.281838 1.000000
0.024487 0.281838 1.000000
0.281838 0.281838 1.000000
1.000000 0.281838 1.000000
1.000000 0.281838 1.000000
0.000000 1.000000 1.000000
0.024487 1.000000 1.000000
0.281838 1.000000 1.000000
1.000000 1.000000 1.000000
1.000000 1.000000 1.000000
0.000000 1.000000 1.000000
0.024487 1.000000 1.000000
0.281838 1.000000 1.000000
1.000000 1.000000 1.000000
1.000000 1.000000 1.000000
